docs/public/static/branding/about/illustrations/trust-dark.svg

<svg width="75" height="92" viewBox="0 0 75 92" fill="none" xmlns="http://www.w3.org/2000/svg">
<path d="M38.3324 71.6824L34.1582 83.1021C33.5594 84.7404 31.3404 84.9777 30.4087 83.5031L27.6644 79.1599C27.1544 78.3527 26.1644 77.991 25.2541 78.2791L20.3808 79.8217C18.7134 80.3496 17.1688 78.7281 17.7768 77.0883L20.9481 68.5351" stroke="#3399FF" stroke-width="2.52123" stroke-linecap="round" stroke-linejoin="round"/>
<path d="M38.1201 70.426L41.1281 83.7822C41.5113 85.4838 43.6812 86.0045 44.7948 84.662L48.0759 80.7066C48.6855 79.9717 49.714 79.7403 50.5797 80.1433L55.23 82.3082C56.8119 83.0446 58.5502 81.6434 58.1662 79.9412L55.0369 66.0664" stroke="#3399FF" stroke-width="2.52123" stroke-linecap="round" stroke-linejoin="round"/>
<path d="M72.8653 37.3651C72.8653 38.8263 69.4952 40.5397 69.2872 41.9863C69.0803 43.4318 71.8295 46.0244 71.4187 47.4269C71.008 48.8282 67.2912 49.5237 66.683 50.8547C66.0758 52.1846 67.9856 55.4475 67.1957 56.6755C66.4057 57.9057 62.6459 57.5233 61.6889 58.6284C60.7308 59.7336 61.6427 63.3999 60.5386 64.3579C59.4345 65.316 55.9331 63.8915 54.703 64.6804C53.4749 65.4704 53.3163 69.2481 51.9874 69.8531C50.6564 70.4624 47.6982 68.1072 46.2989 68.5169C44.8965 68.9297 43.6789 72.5099 42.2334 72.7168C40.7869 72.9248 38.6092 69.8342 37.15 69.8342C35.6908 69.8342 33.5247 72.8114 32.0655 72.7168C30.6095 72.6233 29.4035 68.9297 28.0011 68.5169C26.5997 68.1072 23.6415 70.4624 22.3126 69.8531C20.9826 69.2481 20.8229 65.4694 19.597 64.6804C18.3669 63.8904 14.8644 65.3149 13.7593 64.3579C12.6573 63.3999 13.5681 59.7336 12.6111 58.6284C11.6551 57.5233 7.89221 57.9046 7.10222 56.6755C6.31434 55.4475 8.22102 52.1846 7.61487 50.8547C7.00768 49.5247 3.29097 48.8293 2.88022 47.4269C2.46842 46.0244 5.21866 43.4318 5.01066 41.9863C4.80266 40.5408 1.43262 38.8263 1.43262 37.3651C1.43262 35.9038 4.80266 34.1883 5.01066 32.7439C5.21866 31.2963 2.46842 28.7047 2.88022 27.3012C3.29097 25.8998 7.00663 25.2065 7.61487 23.8755C8.21997 22.5487 6.31329 19.2837 7.10222 18.0556C7.89221 16.8255 11.6551 17.2047 12.6111 16.1006C13.5692 14.9955 12.6573 11.3282 13.7593 10.3712C14.8634 9.41414 18.3658 10.8376 19.597 10.0486C20.8261 9.25866 20.9837 5.48103 22.3126 4.87383C23.6425 4.26874 26.5997 6.61978 28.0011 6.20903C29.4035 5.79828 30.6095 2.10469 32.0655 2.01014C33.5247 1.91664 35.6898 4.89379 37.15 4.89379C38.6102 4.89379 40.7869 1.80109 42.2334 2.01014C43.6789 2.21814 44.8965 5.79723 46.2989 6.20903C47.6992 6.61978 50.6564 4.26874 51.9874 4.87383C53.3163 5.48103 53.4749 9.25971 54.703 10.0486C55.9331 10.8376 59.4345 9.41414 60.5386 10.3712C61.6427 11.3271 60.7319 14.9955 61.6889 16.1006C62.6459 17.2047 66.4057 16.8255 67.1957 18.0556C67.9856 19.2837 66.079 22.5487 66.683 23.8755C67.2912 25.2065 71.008 25.8998 71.4187 27.3012C71.8295 28.7047 69.0803 31.2973 69.2872 32.7439C69.4952 34.1894 72.8653 35.9059 72.8653 37.3651Z" fill="#0059B3" fill-opacity="0.3"/>
<path d="M15.347 47.8638C14.6022 46.3206 15.9941 43.9927 15.6054 42.2825C15.2294 40.6258 12.9561 39.1341 12.9561 37.364C12.9561 35.5939 15.2294 34.1022 15.6054 32.4455C15.9941 30.7353 14.6022 28.4073 15.347 26.8641C16.1034 25.2957 18.799 24.9375 19.8747 23.5897C20.9557 22.2366 20.7099 19.5295 22.064 18.4485C23.4107 17.3728 25.9929 18.2111 27.5624 17.4547C29.1056 16.7099 30.0542 14.1614 31.7644 13.7727C33.4211 13.3956 35.3782 15.2718 37.1483 15.2718C38.9184 15.2718 40.8755 13.3956 42.5321 13.7727C44.2434 14.1614 45.192 16.7099 46.7352 17.4547C48.3036 18.2111 50.8858 17.3728 52.2336 18.4485C53.5877 19.5295 53.3408 22.2366 54.4218 23.5897C55.4975 24.9375 58.1932 25.2957 58.9506 26.8641C59.6943 28.4073 58.3024 30.7353 58.6911 32.4455C59.0682 34.1022 61.3415 35.5939 61.3415 37.364C61.3415 39.1341 59.0682 40.6258 58.6911 42.2825C58.3024 43.9927 59.6943 46.3206 58.9506 47.8638C58.1932 49.4323 55.4975 49.7905 54.4218 51.1383" stroke="#3399FF" stroke-width="2.52123" stroke-linecap="round" stroke-linejoin="round"/>
<path d="M27.7748 35.3292C27.7748 35.3292 30.0964 41.9674 30.796 44.7733V44.7722C32.5756 51.9104 37.7105 53.8014 38.9543 56.3236C39.9313 58.3044 40.9146 60.0431 42.2725 62.321C42.7291 63.0869 43.6234 63.479 44.4835 63.2438C45.4159 62.9889 46.6085 62.6101 47.4569 62.1533C48.235 61.7342 49.1164 61.038 49.8189 60.431C50.5898 59.7649 50.6837 58.6325 50.1151 57.7869C49.0384 56.1858 48.3652 55.0208 47.8301 53.6868C46.5989 50.6173 47.2428 50.1971 48.058 48.095C48.8732 45.9929 48.848 42.3792 49.0802 41.148C49.5991 38.3977 50.9396 36.9795 49.5939 36.2893C48.5118 35.7347 47.0033 37.1865 46.5106 38.8662C45.6166 41.9159 45.3761 45.5254 44.4453 38.5133C44.085 35.7977 43.0345 28.6616 42.7277 25.9397C42.6216 24.9922 42.0438 24.3261 41.2675 24.428C40.3221 24.552 39.9439 25.3924 40.0185 26.3442C40.2128 28.8244 40.342 35.2746 40.4481 37.4491C40.4618 37.7433 40.2181 37.9996 40.1098 37.5174C39.5541 35.0455 38.033 26.5501 37.5046 23.7809C37.285 22.6317 36.287 22.0297 35.4162 22.5277C34.8342 22.8607 34.5379 23.5645 34.644 24.2484C35.0401 26.8085 36.6652 37.9218 36.6652 37.9218C36.8207 38.7139 36.4184 38.6677 36.2503 38.134L36.2209 38.0595C36.2209 38.0595 33.3656 29.6753 32.7815 27.505C32.5399 26.6057 31.9673 25.8168 31.0902 26.0637C30.2151 26.3105 30.0102 27.2392 30.2245 28.1458C30.837 30.7342 32.8319 38.0994 33.3939 40.3548C33.6345 41.3213 33.4538 41.3843 33.1544 40.7603C32.8056 40.0344 30.5197 35.3061 30.1426 34.4394C29.7865 33.6211 29.1152 32.8899 28.2821 33.2114C27.4491 33.5328 27.4533 34.4951 27.7748 35.3292Z" fill="url(#paint0_linear_731_1743)"/>
<path d="M47.5784 32.1776C47.5784 32.1776 44.2988 40.1604 43.5203 42.9453H43.5182C41.537 50.0321 40.0368 50.1361 37.4452 54.3266C37.274 54.6249 37.0965 54.9264 36.9116 55.23C36.9105 55.2332 36.9084 55.2353 36.9074 55.2384C36.9063 55.2405 36.9042 55.2416 36.9042 55.2437C35.6993 57.2228 34.2054 59.306 32.4091 61.469C31.7436 62.2703 31.0166 63.12 30.2388 64.0049C29.6817 64.6387 28.7966 64.8693 28.0123 64.5576C26.6847 64.0299 24.6392 63.1311 23.3268 62.1434C22.2354 61.3219 21.0427 59.9811 20.1985 58.9522C19.5324 58.1403 19.6407 56.9687 20.383 56.2257C21.3801 55.2275 22.2243 54.3216 22.8683 53.5461C23.5459 52.7309 24.2035 51.986 24.7183 51.2118C26.5514 48.4584 25.2667 43.2227 25.0723 40.9767C24.878 38.7307 25.1469 36.3334 25.7793 35.2514C27.7448 31.8898 25.0933 29.9758 27.1523 29.6375C28.8699 29.3549 29.2775 32.892 28.9739 35.285C28.976 35.284 28.9792 35.2829 28.9813 35.2819C28.3783 40.027 29.6798 38.0521 30.4152 34.495C30.9699 31.8131 32.2652 26.4881 32.8062 23.803C32.9942 22.868 33.6266 22.2556 34.3914 22.4236C35.3232 22.6285 35.6268 23.4994 35.4703 24.4406C35.0627 26.8946 34.3263 31.4244 34.0037 33.9971C33.9596 34.3459 34.238 34.5266 34.3735 33.9561C35.028 31.1891 36.5554 25.7107 37.2005 22.9426C37.4599 21.829 38.4989 21.2681 39.375 21.7755C39.9601 22.1148 40.2417 22.8081 40.1125 23.472C39.6292 25.9565 38.211 34.5644 38.211 34.5644C38.0156 35.5025 38.4653 35.4626 38.6691 34.8323C38.6691 34.8323 40.6388 28.3222 41.2271 26.0573C41.4708 25.1192 42.0706 24.2883 43.0108 24.5247C43.951 24.761 44.1843 25.7201 43.9699 26.6656C43.3575 29.3644 42.4583 34.8134 41.8815 37.5153C41.6347 38.674 41.7008 38.8084 42.0528 38.0752C42.4625 37.2222 44.8345 32.0789 45.2369 31.2227C45.6161 30.4149 46.3073 29.7026 47.1309 30.0472C47.9545 30.3918 47.9241 31.353 47.5784 32.1776Z" fill="url(#paint1_linear_731_1743)"/>
<path d="M72.8653 37.3651C72.8653 38.8263 69.4952 40.5397 69.2872 41.9863C69.0803 43.4318 71.8295 46.0244 71.4187 47.4269C71.008 48.8282 67.2912 49.5237 66.683 50.8547C66.0758 52.1846 67.9856 55.4475 67.1957 56.6755C66.4057 57.9057 62.6459 57.5233 61.6889 58.6284C60.7308 59.7336 61.6427 63.3999 60.5386 64.3579C59.4345 65.316 55.9331 63.8915 54.703 64.6804C53.4749 65.4704 53.3163 69.2481 51.9874 69.8531C50.6564 70.4624 47.6982 68.1072 46.2989 68.5169C44.8965 68.9297 43.6789 72.5099 42.2334 72.7168C40.7869 72.9248 38.6092 69.8342 37.15 69.8342C35.6908 69.8342 33.5247 72.8114 32.0655 72.7168C30.6095 72.6233 29.4035 68.9297 28.0011 68.5169C26.5997 68.1072 23.6415 70.4624 22.3126 69.8531C20.9826 69.2481 20.8229 65.4694 19.597 64.6804C18.3669 63.8904 14.8644 65.3149 13.7593 64.3579C12.6573 63.3999 13.5681 59.7336 12.6111 58.6284C11.6551 57.5233 7.89221 57.9046 7.10222 56.6755C6.31434 55.4475 8.22102 52.1846 7.61487 50.8547C7.00768 49.5247 3.29097 48.8293 2.88022 47.4269C2.46842 46.0244 5.21866 43.4318 5.01066 41.9863C4.80266 40.5408 1.43262 38.8263 1.43262 37.3651C1.43262 35.9038 4.80266 34.1883 5.01066 32.7439C5.21866 31.2963 2.46842 28.7047 2.88022 27.3012C3.29097 25.8998 7.00663 25.2065 7.61487 23.8755C8.21997 22.5487 6.31329 19.2837 7.10222 18.0556C7.89221 16.8255 11.6551 17.2047 12.6111 16.1006C13.5692 14.9955 12.6573 11.3282 13.7593 10.3712C14.8634 9.41414 18.3658 10.8376 19.597 10.0486C20.8261 9.25866 20.9837 5.48103 22.3126 4.87383C23.6425 4.26874 26.5997 6.61978 28.0011 6.20903C29.4035 5.79828 30.6095 2.10469 32.0655 2.01014C33.5247 1.91664 35.6898 4.89379 37.15 4.89379C38.6102 4.89379 40.7869 1.80109 42.2334 2.01014C43.6789 2.21814 44.8965 5.79723 46.2989 6.20903C47.6992 6.61978 50.6564 4.26874 51.9874 4.87383C53.3163 5.48103 53.4749 9.25971 54.703 10.0486C55.9331 10.8376 59.4345 9.41414 60.5386 10.3712C61.6427 11.3271 60.7319 14.9955 61.6889 16.1006C62.6459 17.2047 66.4057 16.8255 67.1957 18.0556C67.9856 19.2837 66.079 22.5487 66.683 23.8755C67.2912 25.2065 71.008 25.8998 71.4187 27.3012C71.8295 28.7047 69.0803 31.2973 69.2872 32.7439C69.4952 34.1894 72.8653 35.9059 72.8653 37.3651Z" stroke="#3399FF" stroke-width="2.52123" stroke-linecap="round" stroke-linejoin="round"/>
<defs>
<linearGradient id="paint0_linear_731_1743" x1="27.5742" y1="31.7621" x2="52.9807" y2="33.7259" gradientUnits="userSpaceOnUse">
<stop stop-color="#005BB8"/>
<stop offset="1" stop-color="#0072E6"/>
</linearGradient>
<linearGradient id="paint1_linear_731_1743" x1="49.9322" y1="31.2268" x2="14.7281" y2="35.9371" gradientUnits="userSpaceOnUse">
<stop stop-color="#007FFF"/>
<stop offset="1" stop-color="#3399FF"/>
</linearGradient>
</defs>
</svg>

<svg xmlns="http://www.w3.org/2000/svg" width="75" height="92" fill="none"><path stroke="#39F" stroke-linecap="round" stroke-linejoin="round" stroke-width="2.521" d="m38.332 71.682-4.174 11.42c-.599 1.638-2.818 1.876-3.75.401l-2.744-4.343a2.101 2.101 0 0 0-2.41-.88l-4.873 1.542c-1.668.528-3.212-1.094-2.604-2.734l3.171-8.553M38.12 70.426l3.008 13.356c.383 1.702 2.553 2.222 3.667.88l3.28-3.955a2.101 2.101 0 0 1 2.505-.564l4.65 2.165c1.582.737 3.32-.665 2.936-2.367l-3.13-13.875"/><path fill="#0059B3" fill-opacity=".3" d="M72.865 37.365c0 1.461-3.37 3.175-3.578 4.621-.207 1.446 2.542 4.038 2.132 5.44-.411 1.402-4.128 2.098-4.736 3.429-.607 1.33 1.303 4.593.513 5.82-.79 1.23-4.55.848-5.507 1.953-.958 1.106-.046 4.772-1.15 5.73-1.105.958-4.606-.467-5.836.322-1.228.79-1.387 4.568-2.716 5.173-1.33.61-4.289-1.746-5.688-1.336-1.402.413-2.62 3.993-4.066 4.2-1.446.208-3.624-2.883-5.083-2.883-1.46 0-3.625 2.977-5.084 2.883-1.457-.094-2.663-3.787-4.065-4.2-1.401-.41-4.36 1.945-5.688 1.336-1.33-.605-1.49-4.384-2.716-5.173-1.23-.79-4.733.635-5.838-.322-1.102-.958-.19-4.624-1.148-5.73-.956-1.105-4.719-.723-5.509-1.953-.788-1.227 1.119-4.49.513-5.82-.607-1.33-4.324-2.026-4.735-3.428-.412-1.403 2.339-3.995 2.13-5.44-.207-1.446-3.577-3.16-3.577-4.622 0-1.461 3.37-3.177 3.578-4.621.208-1.448-2.543-4.04-2.13-5.443.41-1.401 4.126-2.095 4.734-3.425.605-1.327-1.302-4.592-.513-5.82.79-1.23 4.553-.851 5.51-1.955.957-1.105.045-4.773 1.147-5.73 1.104-.957 4.607.467 5.838-.322 1.23-.79 1.387-4.568 2.716-5.175C23.643 4.269 26.6 6.62 28 6.209c1.402-.41 2.608-4.104 4.064-4.199 1.46-.093 3.625 2.884 5.085 2.884S40.787 1.8 42.233 2.01c1.446.208 2.664 3.787 4.066 4.199 1.4.41 4.357-1.94 5.688-1.335 1.33.607 1.488 4.386 2.716 5.175 1.23.789 4.731-.635 5.836.322 1.104.956.193 4.624 1.15 5.73.957 1.104 4.717.725 5.507 1.955.79 1.228-1.117 4.493-.513 5.82.608 1.33 4.325 2.024 4.736 3.425.41 1.404-2.339 3.996-2.132 5.443.208 1.445 3.578 3.162 3.578 4.621Z"/><path stroke="#39F" stroke-linecap="round" stroke-linejoin="round" stroke-opacity=".3" stroke-width="2.801" d="M15.347 47.864c-.745-1.543.647-3.871.258-5.581-.376-1.657-2.649-3.149-2.649-4.919 0-1.77 2.273-3.262 2.65-4.918.388-1.71-1.004-4.039-.259-5.582.756-1.568 3.452-1.927 4.528-3.274 1.08-1.353.835-4.06 2.189-5.142 1.347-1.075 3.929-.237 5.498-.993 1.544-.745 2.492-3.294 4.202-3.682 1.657-.377 3.614 1.499 5.384 1.499 1.77 0 3.727-1.876 5.384-1.5 1.711.39 2.66 2.938 4.203 3.683 1.569.756 4.15-.082 5.499.994 1.354 1.08 1.107 3.788 2.188 5.14 1.076 1.349 3.771 1.707 4.529 3.275.743 1.543-.649 3.871-.26 5.582.377 1.656 2.65 3.148 2.65 4.918s-2.273 3.262-2.65 4.919c-.389 1.71 1.003 4.038.26 5.58-.758 1.57-3.453 1.928-4.53 3.275"/><path fill="url(#a)" d="M27.775 35.33s2.321 6.637 3.021 9.443c1.78 7.137 6.915 9.028 8.158 11.55.977 1.981 1.96 3.72 3.319 5.998.456.766 1.35 1.158 2.21.923.933-.255 2.126-.634 2.974-1.09.778-.42 1.66-1.116 2.362-1.723.77-.666.865-1.798.296-2.644-1.077-1.601-1.75-2.766-2.285-4.1-1.231-3.07-.587-3.49.228-5.592.815-2.102.79-5.716 1.022-6.947.52-2.75 1.86-4.169.514-4.859-1.082-.554-2.59.898-3.083 2.577-.894 3.05-1.135 6.66-2.066-.353-.36-2.715-1.41-9.851-1.717-12.573-.106-.948-.684-1.614-1.46-1.512-.946.124-1.324.964-1.25 1.916.195 2.48.324 8.93.43 11.105.014.294-.23.55-.338.068-.556-2.472-2.077-10.967-2.605-13.736-.22-1.15-1.218-1.751-2.089-1.253-.582.333-.878 1.037-.772 1.72.396 2.56 2.021 13.674 2.021 13.674.156.792-.247.746-.415.212l-.03-.075s-2.854-8.384-3.438-10.554c-.242-.9-.815-1.688-1.692-1.441-.875.247-1.08 1.175-.866 2.082.613 2.588 2.608 9.953 3.17 12.209.24.966.06 1.03-.24.405-.348-.726-2.634-5.454-3.011-6.32-.357-.819-1.028-1.55-1.86-1.229-.834.322-.83 1.284-.508 2.118Z"/><path fill="url(#b)" d="M47.578 32.178s-3.28 7.982-4.058 10.767h-.002c-1.981 7.087-3.481 7.191-6.073 11.382-.171.298-.349.6-.533.903l-.005.008-.003.006c-1.205 1.979-2.699 4.062-4.495 6.225-.665.801-1.392 1.651-2.17 2.536a1.986 1.986 0 0 1-2.227.553c-1.327-.528-3.373-1.427-4.685-2.415-1.092-.821-2.284-2.162-3.129-3.19-.666-.813-.557-1.984.185-2.727.997-.998 1.841-1.904 2.485-2.68.678-.815 1.335-1.56 1.85-2.334 1.833-2.754.549-7.99.354-10.235-.194-2.246.075-4.644.707-5.726 1.966-3.361-.686-5.275 1.373-5.613 1.718-.283 2.125 3.254 1.822 5.647l.007-.003c-.603 4.745.699 2.77 1.434-.787.555-2.682 1.85-8.007 2.391-10.692.188-.935.82-1.547 1.585-1.38.932.206 1.236 1.076 1.08 2.018-.408 2.454-1.145 6.983-1.467 9.556-.044.349.234.53.37-.04.654-2.768 2.181-8.246 2.826-11.014.26-1.114 1.299-1.675 2.175-1.168.585.34.867 1.033.737 1.697-.483 2.484-1.901 11.092-1.901 11.092-.195.938.254.899.458.268 0 0 1.97-6.51 2.558-8.775.244-.938.844-1.769 1.784-1.532.94.236 1.173 1.195.959 2.14-.612 2.7-1.512 8.148-2.088 10.85-.247 1.159-.181 1.293.17.56.41-.853 2.782-5.996 3.185-6.852.38-.808 1.07-1.52 1.894-1.176.824.345.793 1.306.447 2.13Z"/><path stroke="#39F" stroke-linecap="round" stroke-linejoin="round" stroke-width="2.521" d="M72.865 37.365c0 1.461-3.37 3.175-3.578 4.621-.207 1.446 2.542 4.038 2.132 5.44-.411 1.402-4.128 2.098-4.736 3.429-.607 1.33 1.303 4.593.513 5.82-.79 1.23-4.55.848-5.507 1.953-.958 1.106-.046 4.772-1.15 5.73-1.105.958-4.606-.467-5.836.322-1.228.79-1.387 4.568-2.716 5.173-1.33.61-4.289-1.746-5.688-1.336-1.402.413-2.62 3.993-4.066 4.2-1.446.208-3.624-2.883-5.083-2.883-1.46 0-3.625 2.977-5.084 2.883-1.457-.094-2.663-3.787-4.065-4.2-1.401-.41-4.36 1.945-5.688 1.336-1.33-.605-1.49-4.384-2.716-5.173-1.23-.79-4.733.635-5.838-.322-1.102-.958-.19-4.624-1.148-5.73-.956-1.105-4.719-.723-5.509-1.953-.788-1.227 1.119-4.49.513-5.82-.607-1.33-4.324-2.026-4.735-3.428-.412-1.403 2.339-3.995 2.13-5.44-.207-1.446-3.577-3.16-3.577-4.622 0-1.461 3.37-3.177 3.578-4.621.208-1.448-2.543-4.04-2.13-5.443.41-1.401 4.126-2.095 4.734-3.425.605-1.327-1.302-4.592-.513-5.82.79-1.23 4.553-.851 5.51-1.955.957-1.105.045-4.773 1.147-5.73 1.104-.957 4.607.467 5.838-.322 1.23-.79 1.387-4.568 2.716-5.175C23.643 4.269 26.6 6.62 28 6.209c1.402-.41 2.608-4.104 4.064-4.199 1.46-.093 3.625 2.884 5.085 2.884S40.787 1.8 42.233 2.01c1.446.208 2.664 3.787 4.066 4.199 1.4.41 4.357-1.94 5.688-1.335 1.33.607 1.488 4.386 2.716 5.175 1.23.789 4.731-.635 5.836.322 1.104.956.193 4.624 1.15 5.73.957 1.104 4.717.725 5.507 1.955.79 1.228-1.117 4.493-.513 5.82.608 1.33 4.325 2.024 4.736 3.425.41 1.404-2.339 3.996-2.132 5.443.208 1.445 3.578 3.162 3.578 4.621Z"/><defs><linearGradient id="a" x1="27.574" x2="52.981" y1="31.762" y2="33.726" gradientUnits="userSpaceOnUse"><stop stop-color="#005BB8"/><stop offset="1" stop-color="#0072E6"/></linearGradient><linearGradient id="b" x1="49.932" x2="14.728" y1="31.227" y2="35.937" gradientUnits="userSpaceOnUse"><stop stop-color="#007FFF"/><stop offset="1" stop-color="#39F"/></linearGradient></defs></svg>
